X:1
T: the Parting Glass
R:march
S:Na Fili
Z:Juergen.Gier@post.rwth-aachen.de irtrad-l 2001-01-19
M:2/4
L:1/8
K:EMin
~G3F | E2EF | ~G3B | A2GA | B2B2 | BAGA | B2D2 | D2BA | \
~G3F | E2EF | ~G3B | A2GA | B2e2 | dBAB | G2E2 | E2Bc ||
~d3e | d2Bd | edBc | d2ed | c2B2 | A2GA | B2D2 | D2BA | \
~G3F | E2EF | ~G3B | A2GA | B2e2 | dBAB | G2E2 | E4 |]
